app/assets/images/heroicons/mini/eye-slash.svg

<svg width="20" height="20" viewBox="0 0 20 20" fill="none" xmlns="http://www.w3.org/2000/svg">
<path fill-rule="evenodd" clip-rule="evenodd" d="M3.28033 2.21967C2.98744 1.92678 2.51256 1.92678 2.21967 2.21967C1.92678 2.51256 1.92678 2.98744 2.21967 3.28033L16.7197 17.7803C17.0126 18.0732 17.4874 18.0732 17.7803 17.7803C18.0732 17.4874 18.0732 17.0126 17.7803 16.7197L16.0352 14.9745C17.5064 13.8594 18.6595 12.3465 19.3344 10.5959C19.4814 10.2144 19.4816 9.79127 19.3347 9.40962C17.892 5.66051 14.256 3 9.99859 3C8.28207 3 6.66657 3.43249 5.2551 4.19444L3.28033 2.21967ZM7.75194 6.69128L8.84367 7.78301C9.18951 7.60223 9.58291 7.5 10.0002 7.5C11.3809 7.5 12.5002 8.61929 12.5002 10C12.5002 10.4173 12.398 10.8107 12.2172 11.1565L13.3091 12.2484C13.7454 11.6077 14.0004 10.8336 14.0004 10C14.0004 7.79086 12.2095 6 10.0004 6C9.16675 6 8.39268 6.25501 7.75194 6.69128Z" fill="#0F172A"/>
<path d="M10.7484 13.9302L13.2711 16.4529C12.2462 16.8074 11.1458 17 10.0004 17C5.74298 17 2.10698 14.3395 0.664255 10.5904C0.517392 10.2087 0.517518 9.78563 0.66461 9.40408C1.15603 8.12932 1.90108 6.98057 2.83791 6.01969L6.0702 9.25198C6.02436 9.4943 6.00037 9.74435 6.00037 10C6.00037 12.2091 7.79123 14 10.0004 14C10.256 14 10.5061 13.976 10.7484 13.9302Z" fill="#0F172A"/>
</svg>

<svg xmlns="http://www.w3.org/2000/svg" viewBox="0 0 20 20" fill="currentColor" aria-hidden="true" data-slot="icon">
  <path fill-rule="evenodd" d="M3.28 2.22a.75.75 0 0 0-1.06 1.06l14.5 14.5a.75.75 0 1 0 1.06-1.06l-1.745-1.745a10.029 10.029 0 0 0 3.3-4.38 1.651 1.651 0 0 0 0-1.185A10.004 10.004 0 0 0 9.999 3a9.956 9.956 0 0 0-4.744 1.194L3.28 2.22ZM7.752 6.69l1.092 1.092a2.5 2.5 0 0 1 3.374 3.373l1.091 1.092a4 4 0 0 0-5.557-5.557Z" clip-rule="evenodd"/>
  <path d="m10.748 13.93 2.523 2.523a9.987 9.987 0 0 1-3.27.547c-4.258 0-7.894-2.66-9.337-6.41a1.651 1.651 0 0 1 0-1.186A10.007 10.007 0 0 1 2.839 6.02L6.07 9.252a4 4 0 0 0 4.678 4.678Z"/>
</svg>
